X:1
T:Agitato Burgmuller
T:Johann Friedrich Burgmuller
%%score { 1 | 2 }
L:1/8
Q:1/4=144
M:4/4
K:G
V:1 treble nm="Piano" snm="Pno."
V:2 bass 
V:1
"^L.H.""^Vivace" E/G/"^R.H." B/G/ E/G/ B/G/ E/G/ g/B/ E/G/ g/B/ | %1
 ^D/A/ g/B/ D/A/ f/B/ D/A/ ^e/B/ D/A/ f/B/ | E/G/ b/B/ E/G/ g/B/ E/G/ f/B/ E/G/ e/B/ | %3
 ^D/A/ g/B/ D/A/ f/B/ D/A/ ^e/B/ D/A/ f/B/ | E/G/ g/B/ E/G/ g/B/ D/=F/ ^g/B/ D/F/ g/B/ | %5
 C/E/ a/A/ C/E/ e/A/ C/E/ ^d/A/ C/E/ e/A/ | B,/E/ g/B/ B,/A/ f/B/ B,/G/ e/B/ B,/F/ ^d/B/ | %7
 E/G/ e/B/ ^A/B/ c/B/ A/B/ c/B/ A/B/ c/B/ :: z D/B,/ z G/D/ z A/D/ z B/D/ | %9
 z B/D/ z A/D/ z ^G/D/ z A/D/ | z D/B,/ z G/D/ z A/D/ z B/D/ | z d/D/ z ^c/D/ z =c/D/ z A/D/ | %12
 z B/D/ z B/D/ z e/E/ z B/E/ | z c/E/ z c/E/ z g/G/ z d/G/ | z e/G/ z e/^G/ z e/A/ z e/^A/ | %15
 z ^d/B/ z B/B,/ z B/B,/ z B/B,/ | [B,EGB] B/G/ E/G/ B/G/ E/G/ g/B/ E/G/ g/B/ | %17
 ^D/A/ g/B/ D/A/ f/B/ D/A/ ^e/B/ D/A/ f/B/ | E/G/ c'/B/ E/G/ b/B/ E/G/ g/B/ E/G/ e/B/ | %19
 ^D/A/ g/B/ D/A/ f/B/ D/A/ ^e/B/ D/A/ f/B/ | E/G/ g/B/ E/G/ g/B/ D/=F/ ^g/B/ D/F/ g/B/ | %21
 C/E/ a/A/ C/E/ e/A/ C/E/ ^d/A/ C/E/ e/A/ | B,/E/ g/B/ B,/A/ f/B/ B,/G/ e/B/ B,/F/ ^d/B/ |1 %23
 E/G/ e/B/ ^A/B/ c/B/ A/B/ c/B/ A/B/ c/B/ :|2 E/G/ e/B/ E/G/ e/B/ E/A/ e/c/ E/F/ e/A/ || %25
 E/G/ e/B/ E/G/ e/B/ E/A/ e/c/ E/F/ e/A/ | E/G/ e/B/ E/G/ B/G/ B,/E/ G/E/ G,/B,/ E/B,/ | z8 | z8 | %29
 z4 .[GBeg]2 z2 |[K:bass] E,4 z4 |] %31
V:2
!ped! z8!ped-up! |!ped! z8!ped-up! |!ped! z8!ped-up! |!ped! z8!ped-up! |!ped! z8!ped-up! | %5
!ped! z8!ped-up! |!ped! z8!ped-up! |!ped! z8!ped-up! :: %8
!ped! G,/B,/ z G,/B,/ z G,/B,/ z G,/B,/ z!ped-up! |!ped! F,/C/ z F,/C/ z F,/C/ z F,/C/ z!ped-up! | %10
!ped! G,/B,/ z G,/B,/ z G,/B,/ z G,/B,/ z!ped-up! | %11
!ped! F,/A,/ z F,/A,/ z F,/A,/ z F,/C/ z!ped-up! | %12
!ped! G,/B,/ z G,/B,/ z ^G,/B,/ z G,/B,/ z!ped-up! |!ped! A,/C/ z A,/C/ z B,/D/ z B,/D/ z!ped-up! | %14
!ped! C/E/ z C/E/ z C/E/ z C/E/ z!ped-up! |!ped! B,/F/ z B,,/B,/ z F,,/F,/ z G,,/F,/ z!ped-up! | %16
!ped! [E,,E,] z z2 z4!ped-up! |!ped! z8!ped-up! |!ped! z8!ped-up! |!ped! z8!ped-up! | %20
!ped! z8!ped-up! |!ped! z8!ped-up! |!ped! z8!ped-up! |1!ped! z8!ped-up! :|2!ped! z8!ped-up! || %25
!ped! z8!ped-up! |!ped! z8!ped-up! | %27
!ped! E,/G,/ B,/G,/ E,/G,/ B,/G,/ B,,/E,/ G,/E,/ G,,/B,,/ E,/B,,/!ped-up! | %28
!ped! E,,/G,,/ B,,/G,,/ E,,/G,,/ B,,/G,,/ E,,/G,,/ B,,/G,,/ E,,/G,,/ B,,/G,,/!ped-up! | %29
 .E,,2 z2 .[E,B,E]2 z2 | [E,,,E,,]4 z4 |] %31

